X:1
T:Something for Jesus, 10.10.12.10
T:Something for Jesus, 10.10.12.10
T:Robert Lowry, 1871
T:Public Domain Courtesy of the Cyber Hymnal™
C:Robert Lowry, 1871
Z:Public Domain
Z:Courtesy of the Cyber Hymnal™
%%score ( 1 2 ) ( 3 4 )
L:1/8
Q:1/4=110
M:4/4
K:G
V:1 treble 
V:2 treble 
V:3 bass 
V:4 bass 
V:1
 [DB]4 [Ec]2 [DB]2 | [EA]3 E [EA]4 | (G2 F2) [CE]2 [CF]2 | (G4 D4) | [GB]4 [Gc]2 [GB]2 | %5
 [EA]3 E [EA]4 | (G2 F2) [GB]3 [FA] | G8 | [FA]4 [FA]2 [GB]2 | [Ac]3 [GB] [FA]4 | %10
 [DB]4 [DB]2 [Dc]2 | [Gd]3 [Dc] [DB]4 | [Gd]4 [Dc]2 [DB]2 | [EA]3 [EB] [Ec]4 | (G2 F2) [GB]3 [DA] | %15
 [DG]8 |] %16
V:2
 x8 | x8 | D4 x4 | B,8 | x8 | x3 E x4 | D4 x4 | G8 | x8 | x8 | x8 | x8 | x8 | x8 | D4 x4 | x8 |] %16
V:3
 G,4 G,2 G,2 | [C,C]3 [C,C] [C,C]4 | (B,2 A,2) [D,G,]2 [D,A,]2 | [G,,G,]8 | [G,D]4 [G,E]2 [G,D]2 | %5
 [C,C]3 [C,C] [C,C]4 | (B,2 A,2) [D,D]3 [D,C] | [G,B,]8 | [D,D]4 [D,D]2 [D,D]2 | %9
 [D,D]3 [D,D] [D,D]4 | G,4 G,2 [G,A,]2 | [G,B,]3 [G,A,] G,4 | [G,B,]4 [F,A,]2 G,2 | %13
 [C,A,]3 [B,,^G,] [A,,A,]4 | (B,2 A,2) [D,D]3 [D,C] | [G,,B,]8 |] %16
V:4
 G,4 G,2 G,2 | x8 | D,4 x4 | x8 | x8 | x8 | D,4 x4 | x8 | x8 | x8 | G,4 G,2 x2 | x4 G,4 | x8 | x8 | %14
 D,4 x4 | x8 |] %16

